X: 1
T: Cuil Aodha, The
M: 6/8
L: 1/8
R: jig
K: Dmaj
A|:dcA GEA|DED F2 G|AGF GED|CB,A, GB,C|
DED DCD|EFE cde|dcA GEA|DED DFA:|
d2 d dcd|eAB cde|dcA G2 A|GED =CDE|
DFA dcd|eAB cde|dcA GEA|DED D3:|
